dist/icons/svgs/arrow-right-from-arc-solid.svg

<svg xmlns="http://www.w3.org/2000/svg" width="24" height="24" fill="currentcolor" class="icon-arrow-right-from-arc-solid" viewBox="0 0 24 24">
  <path d="M4.5 12C4.5 16.1406 7.85938 19.5 12 19.5C12.6641 19.5 13.25 20.0859 13.25 20.75C13.25 21.4531 12.6641 22 12 22C6.45312 22 2 17.5469 2 12C2 6.49219 6.45312 2 12 2C12.6641 2 13.25 2.58594 13.25 3.25C13.25 3.95312 12.6641 4.5 12 4.5C7.85938 4.5 4.5 7.85938 4.5 12ZM17.2344 6.76562L21.6094 11.1406C22.1172 11.6094 22.1172 12.4297 21.6094 12.8984L17.2344 17.2734C16.7656 17.7812 15.9453 17.7812 15.4766 17.2734C14.9688 16.8047 14.9688 15.9844 15.4766 15.5156L17.7031 13.25H9.5C8.79688 13.25 8.25 12.7031 8.25 12C8.25 11.3359 8.79688 10.75 9.5 10.75H17.7031L15.4766 8.52344C14.9688 8.05469 14.9688 7.23438 15.4766 6.76562C15.9453 6.25781 16.7656 6.25781 17.2344 6.76562Z"/>
</svg>

<svg xmlns="http://www.w3.org/2000/svg" width="24" height="24" fill="currentColor" class="icon-arrow-right-from-arc-solid" viewBox="0 0 24 24">
  <path d="M4.5 12c0 4.14 3.36 7.5 7.5 7.5.664 0 1.25.586 1.25 1.25 0 .703-.586 1.25-1.25 1.25A9.97 9.97 0 0 1 2 12C2 6.492 6.453 2 12 2c.664 0 1.25.586 1.25 1.25 0 .703-.586 1.25-1.25 1.25-4.14 0-7.5 3.36-7.5 7.5m12.734-5.234 4.375 4.375a1.203 1.203 0 0 1 0 1.757l-4.375 4.375a1.205 1.205 0 0 1-1.757 0 1.205 1.205 0 0 1 0-1.757l2.226-2.266H9.5c-.703 0-1.25-.547-1.25-1.25 0-.664.547-1.25 1.25-1.25h8.203l-2.226-2.227a1.205 1.205 0 0 1 0-1.757 1.205 1.205 0 0 1 1.757 0"/>
</svg>
